X:1
T:Old Yeller Dog Come Trottin’ Through the Meeﬁnghouse
L:1/4
M:2/2
I:linebreak $
K:G
V:1 treble nm="Voice" snm="Voice"
V:1
"G" G, B, D G | B2 B/A/ G |"D" A3/2 G/ A D/E/ |$"G" G, B,/D/ G G | A G/A/ B/G/ A |1 G2 G2 :|2 %6
 G2 G |$ d | g2 e2 | d3 B- | B B B/A/ G | E3 d |$ g2 e2 | d3/2 G/ e d | d e d/B/ A |]1 G2 G2 || %16
